static/images/mark.svg

<svg version="1.1" x="2" y="2" viewBox="0 0 644 644">
<g>
<path class="st5" d="M310,256.6c-1.2-3.4-3.3-6-5.5-7.8c-3.7-2.8-7.8-3.1-11.2-3.1c-3.7,0-8.5,0.6-12.6,4.2
c-3,2.7-5.2,7.2-5.2,11.8c0,3.1,1.2,6.4,4.2,9.1c1.9,1.8,6.3,4.2,8.4,5.2l9,4.2c4.6,2.1,9.1,4.8,12.7,8.5
c5.7,5.8,6.7,11.1,6.7,17.5c0,5.8-1,15-8.4,22.6c-8.4,8.7-18.9,9.6-25.9,9.6c-8.1,0-14.7-1.5-20.6-7.5c-4.3-4.5-7.6-11.1-8.4-18.3
l11.1-3c0.3,5.1,2.2,9.7,5.4,13c4.3,4.5,9.3,5.2,14.2,5.2c4.8,0,10.9-0.7,15.6-5.5c3.7-3.9,5.4-9.7,5.4-14.5
c0-6-2.7-10.3-5.4-12.7c-1.9-1.8-6.6-4.5-9.7-6l-7.9-3.7c-2.7-1.2-8.5-4.2-11.8-7.6c-2.7-2.8-5.7-7.6-5.7-15.4
c0-7,2.1-13.3,7.8-18.9c6.3-6.1,13.6-8.4,22-8.4c4.3,0,11.1,0.6,16.5,4.2c3.9,2.5,7.2,6.7,9,11.4L310,256.6z"></path>
<path class="st5" d="M327.2,189.1L315,288.9h-11.1l12.3-99.8H327.2z"></path>
<path class="st5" d="M370.4,307.3l33.2,0l-0.3,2.4c-1.2,9.3-3.9,23.2-14.7,34.7c-10.2,10.9-22.7,14.8-36.5,14.8
c-12.6,0-24.5-3.6-34.1-13.2c-7.3-7.3-13.2-18.1-13.2-33.4c0-17.8,7.3-31.6,16.5-40.7c12-12.1,25.7-16,41.2-16
c9.6,0,18,1.6,26.2,6.9c7,4.3,11.4,9.9,14.2,14.8l-9.1,7.5c-2.7-5.4-6.4-9.7-12.1-13.3c-5.8-3.7-11.7-5.4-19.3-5.4
c-16.3,0-26.9,6.7-32.8,12.4c-9.1,9.1-13.3,22.3-13.3,33.5c0,10,3.9,19.6,10.3,26.2c7.9,8.2,17.7,10.2,26.6,10.2
c8.2,0,18.3-1.5,26.6-10.2c5.7-5.7,9.1-13.6,10.6-20.8l-21.3,0L370.4,307.3z"></path>
<path class="st5" d="M240.4,416.7l12.7-104l60.1,72.5l17.5-38.7l7,1.9l-29.6,48l-47.2-57l-9.4,77.4H240.4z"></path>
<path class="st5" d="M376.8,345.1l-9.3,75.7h27.5l-1.3,10.5h-38.6l10-81.4L376.8,345.1z"></path>
<polygon class="st5" points="334.6,350.1 334,348.3 330.5,347.9 328.2,347.4 326.9,349.5 273,445 285.5,445 300.9,417.3
306.6,407.1 328.5,367.3 340.4,407.3 343.4,417.3 351.7,445 363.6,445   "></polygon>
</g>
</svg>

<svg width="644" height="644" viewBox="0 0 644 644" fill="none" xmlns="http://www.w3.org/2000/svg">
<path d="M310 256.6C308.8 253.2 306.7 250.6 304.5 248.8C300.8 246 296.7 245.7 293.3 245.7C289.6 245.7 284.8 246.3 280.7 249.9C277.7 252.6 275.5 257.1 275.5 261.7C275.5 264.8 276.7 268.1 279.7 270.8C281.6 272.6 286 275 288.1 276L297.1 280.2C301.7 282.3 306.2 285 309.8 288.7C315.5 294.5 316.5 299.8 316.5 306.2C316.5 312 315.5 321.2 308.1 328.8C299.7 337.5 289.2 338.4 282.2 338.4C274.1 338.4 267.5 336.9 261.6 330.9C257.3 326.4 254 319.8 253.2 312.6L264.3 309.6C264.6 314.7 266.5 319.3 269.7 322.6C274 327.1 279 327.8 283.9 327.8C288.7 327.8 294.8 327.1 299.5 322.3C303.2 318.4 304.9 312.6 304.9 307.8C304.9 301.8 302.2 297.5 299.5 295.1C297.6 293.3 292.9 290.6 289.8 289.1L281.9 285.4C279.2 284.2 273.4 281.2 270.1 277.8C267.4 275 264.4 270.2 264.4 262.4C264.4 255.4 266.5 249.1 272.2 243.5C278.5 237.4 285.8 235.1 294.2 235.1C298.5 235.1 305.3 235.7 310.7 239.3C314.6 241.8 317.9 246 319.7 250.7L310 256.6Z" fill="white"/>
<path d="M327.2 189.1L315 288.9H303.9L316.2 189.1H327.2V189.1Z" fill="white"/>
<path d="M370.4 307.3H403.6L403.3 309.7C402.1 319 399.4 332.9 388.6 344.4C378.4 355.3 365.9 359.2 352.1 359.2C339.5 359.2 327.6 355.6 318 346C310.7 338.7 304.8 327.9 304.8 312.6C304.8 294.8 312.1 281 321.3 271.9C333.3 259.8 347 255.9 362.5 255.9C372.1 255.9 380.5 257.5 388.7 262.8C395.7 267.1 400.1 272.7 402.9 277.6L393.8 285.1C391.1 279.7 387.4 275.4 381.7 271.8C375.9 268.1 370 266.4 362.4 266.4C346.1 266.4 335.5 273.1 329.6 278.8C320.5 287.9 316.3 301.1 316.3 312.3C316.3 322.3 320.2 331.9 326.6 338.5C334.5 346.7 344.3 348.7 353.2 348.7C361.4 348.7 371.5 347.2 379.8 338.5C385.5 332.8 388.9 324.9 390.4 317.7H369.1L370.4 307.3Z" fill="white"/>
<path d="M240.4 416.7L253.1 312.7L313.2 385.2L330.7 346.5L337.7 348.4L308.1 396.4L260.9 339.4L251.5 416.8H240.4V416.7Z" fill="white"/>
<path d="M376.8 345.1L367.5 420.8H395L393.7 431.3H355.1L365.1 349.9L376.8 345.1Z" fill="white"/>
<path d="M334.6 350.1L334 348.3L330.5 347.9L328.2 347.4L326.9 349.5L273 445H285.5L300.9 417.3L306.6 407.1L328.5 367.3L340.4 407.3L343.4 417.3L351.7 445H363.6L334.6 350.1Z" fill="white"/>
</svg>
